DevCon_2019/Icons/SVG/icon_coffee_cup.svg

<svg height="26" viewBox="0 0 34 26" width="34" xmlns="http://www.w3.org/2000/svg"><path d="m44.7143211 26.9999809c0-1.8928594-1.5357161-3.4285755-3.4285755-3.4285755h-1.1428585v6.857151h1.1428585c1.8928594 0 3.4285755-1.5357161 3.4285755-3.4285755zm-29.7143211 13.7143021h32.0000381c0 2.5178601-2.0535738 4.571434-4.571434 4.571434h-22.8571701c-2.5178601 0-4.571434-2.0535739-4.571434-4.571434zm33.1428967-13.7143021c0 3.7857188-3.0714323 6.8571511-6.8571511 6.8571511h-1.1428585v.5714292c0 2.1964312-1.8035736 4.0000048-4.0000048 4.0000048h-12.5714435c-2.1964312 0-4.0000048-1.8035736-4.0000048-4.0000048v-13.1428728c0-.6250007.5178578-1.1428585 1.1428585-1.1428585h20.5714531c3.7857188 0 6.8571511 3.0714322 6.8571511 6.857151z" fill="#f3f8f2" fill-rule="evenodd" transform="translate(-15 -20)"/></svg>

<?xml version="1.0" encoding="UTF-8"?>
<svg width="34px" height="26px" viewBox="0 0 34 26" version="1.1" xmlns="http://www.w3.org/2000/svg" xmlns:xlink="http://www.w3.org/1999/xlink">
    <!-- Generator: Sketch 52.6 (67491) - http://www.bohemiancoding.com/sketch -->
    <title>Coffee - FontAwesome</title>
    <desc>Created with Sketch.</desc>
    <g id="Page-1" stroke="none" stroke-width="1" fill="none" fill-rule="evenodd">
        <g id="DESKTOP-1024PX" transform="translate(-131.000000, -3316.000000)" fill="#F3F8F2">
            <g id="EVENT-AGENDA" transform="translate(-98.000000, 2685.000000)">
                <g id="DAY-1-AGENDA-Copy-3" transform="translate(193.000000, 249.000000)">
                    <g id="AGENDA-ITEM-Copy" transform="translate(1.000000, 362.000000)">
                        <g id="AVATAR" transform="translate(20.000000, 0.000000)">
                            <path d="M44.7143211,26.9999809 C44.7143211,25.1071215 43.178605,23.5714054 41.2857456,23.5714054 L40.1428871,23.5714054 L40.1428871,30.4285564 L41.2857456,30.4285564 C43.178605,30.4285564 44.7143211,28.8928403 44.7143211,26.9999809 Z M15,40.714283 L47.0000381,40.714283 C47.0000381,43.2321431 44.9464643,45.285717 42.4286041,45.285717 L19.571434,45.285717 C17.0535739,45.285717 15,43.2321431 15,40.714283 Z M48.1428967,26.9999809 C48.1428967,30.7856997 45.0714644,33.857132 41.2857456,33.857132 L40.1428871,33.857132 L40.1428871,34.4285612 C40.1428871,36.6249924 38.3393135,38.428566 36.1428823,38.428566 L23.5714388,38.428566 C21.3750076,38.428566 19.571434,36.6249924 19.571434,34.4285612 L19.571434,21.2856884 C19.571434,20.6606877 20.0892918,20.1428299 20.7142925,20.1428299 L41.2857456,20.1428299 C45.0714644,20.1428299 48.1428967,23.2142621 48.1428967,26.9999809 Z" id="Coffee---FontAwesome"></path>
                        </g>
                    </g>
                </g>
            </g>
        </g>
    </g>
</svg>
